X:1009
T:Capt. McKenzie's Strathspey.
M:C|
L:1/8
Q:1/4=120
I: :| ||
Z:Jack Campin * www.campin.me.uk * 2009
K:A Dorian
e|A<Ac>e   eA/B/ ce|G<GB>A     G2 G>B|A<Ac>e    eA/B/ ce|ae/f/ gB        A2 A:|
e|cB Af/g/ aegB    |G<GB>A ({A}G2)G>B|c>B Af/g/ aegB    |ae/f/ gB/c/ ({B}A2)A
e|cB Af/g/ aegB    |G<GB>(A    GA)BG |A>Bce     dega    |g<eg>B      ({B}A2)A|]

